X: 403
T: MISS CAMPBELL OF SADDELL
C: R. MACKINTOSH
R: Reel
B: Glen Collection p.40 #3
Z: 2011 John Chambers <jc:trillian.mit.edu>
M: C|
L: 1/8
V: 1 clef=treble middle=B
V: 2 clef=bass middle=d
%%score {1 | 2}
K: Dm
%
V: 1
A |\
FDdD F(AAc) | ECcG E(GGA) | FDfd e^cdA | BGA^c d/d/d (dA) |
FDdD F(AAc) | ECcG E(GGE) | FDGE AFBG | Ad^ce d/d/d d ||
a |\
bgaf gefd | egcg ecgc | bgaf gefd | ^ceAa f(dda) |
bgaf gefd | egcg ecgc | dfeg fagb | agfe fdd |]
%
V: 2
z |\
d2[d'2a2] A2[a2f2] | c2[g2e2] c2[g2e2] |\
d2[d'2a2] e2f2 | g2a2 d2[a2f2] |
d2[a2f2] A2[a2f2] | c2[g2e2] c2[g2e2] |\
[f2d2][e2^c2] d2B2 | A2[g2e2] [f2d2][fd] ||
z |\
[e2^c2][f2d2] [g2e2][a2f2] | c2[c'2g2] [c'2g2][c'2g2] |\
[e2^c2][f2d2] [g2e2][a2f2] | A2[^c'2a2] [d'2d2]d2 |
[e2^c2][f2d2] [g2e2][a2f2] | c2[c'2g2] [c'2g2][c'2g2] |\
d2^c2 d2G2 | d2[^c'2a2] [d'2d2][afd] |]
